pix_core/i/upload.svg

<svg preserveAspectRatio="xMinYMid meet" viewBox="0 0 512 512" xmlns="http://www.w3.org/2000/svg"><path d="m288 109.3v242.7c0 17.7-14.3 32-32 32s-32-14.3-32-32v-242.7l-73.4 73.4c-12.5 12.5-32.8 12.5-45.3 0s-12.5-32.8 0-45.3l128-128c12.5-12.5 32.8-12.5 45.3 0l128 128c12.5 12.5 12.5 32.8 0 45.3s-32.8 12.5-45.3 0zm-224 242.7h128c0 35.3 28.7 64 64 64s64-28.7 64-64h128c35.3 0 64 28.7 64 64v32c0 35.3-28.7 64-64 64h-384c-35.3 0-64-28.7-64-64v-32c0-35.3 28.7-64 64-64zm368 104a24 24 0 1 0 0-48 24 24 0 1 0 0 48z" fill="#fff"/></svg>

<svg xmlns="http://www.w3.org/2000/svg" viewBox="0 0 512 512" preserveAspectRatio="xMinYMid meet"><!--!Font Awesome Free 6.5.2 by @fontawesome - https://fontawesome.com License - https://fontawesome.com/license/free Copyright 2024 Fonticons, Inc.--><path fill="#fff" d="M288 109.3V352c0 17.7-14.3 32-32 32s-32-14.3-32-32V109.3l-73.4 73.4c-12.5 12.5-32.8 12.5-45.3 0s-12.5-32.8 0-45.3l128-128c12.5-12.5 32.8-12.5 45.3 0l128 128c12.5 12.5 12.5 32.8 0 45.3s-32.8 12.5-45.3 0L288 109.3zM64 352H192c0 35.3 28.7 64 64 64s64-28.7 64-64H448c35.3 0 64 28.7 64 64v32c0 35.3-28.7 64-64 64H64c-35.3 0-64-28.7-64-64V416c0-35.3 28.7-64 64-64zM432 456a24 24 0 1 0 0-48 24 24 0 1 0 0 48z"/></svg>
